X:10
T:The Cat Came Back
M:2/4
L:1/16
Z:jason
B:Occasionally played by Missouri fiddlers of the 1930s, but rarely today
K:A
fg | abaf e2c2 | agae f2e2 | abaf e2ae | gabg aefg |
abaf e2c2 | agae f2e2 | abaf e2a2 | gabg a2 :|
|: cd | e2!2!a2 agab | [c'2A2][c'A][bA] [c'2A2][c'A][bA] | c'2c'b c'bag | e6 cB |
c2f2- fecB | [e4c4] [e4e4] | [e3c3][eB] [ec][eA][eB][eB] | [e6A6] :|
|: EF | A2A2 cdec | d2c2 edcB | A2A2 ce2c | dcBA EGBG |
A2AB cdec | dcde f2e2 | fefg afed | [ec][eA][eB][ee] [e2A2] :|

